!!!COM: Schubert, Franz
!!!CNT: Deutscher
!!!TXO: Deutsch
!!!LYR: Friedrich von Schiller
!!!OTL: "Der Pilgrim"
!!!OPS: Op. 37
!!!ONM: No. 1
!!!ODT: 1823/
!!NB: Vocal melody only encoded.
!!NB: Original key: D Major
**kern
*clefG2
*k[f#c#g#d#a#]
*M4/4
*MM[massig]
=9
{4d#
4d#
4f#
4f#
=10
4b
8a#
8g#
4g#
4f#
=11
4e#
4g#
4.f#
8en
=12
8d#
8e
8c#
8d#
4B}
4r
=13
{4d#
4d#
4f#
4f#
=12
4b
8a#
8g#
4g#
4f#
=15
4e#
4cc#
8b
8f#
8en
8d#
=16
4d#
4c#
4B}
4r
=19
{4f#
4g#
4f#
8d#
8e
=20
4f#
4g#
4f#
4d#
=21
4d#
4e#
4f#
4f#
=22
8a#
8g#
8f#
8e#
2f#}
=23
{4f#
8a#
8g#
4f#
8d#
8e
=22
4f#
8a#
8g#
4f#
4d#
=25
4b
4B
8B
8e
8f#
8g#
=26
4f#
4f#
4d#}
4r
=29
{4d#
4d#
4.f#
8f#
=30
4b
8a#
8g#
4g#
4f#
=31
4e#
4g#
4.f#
8en
=32
8d#
8e
8c#
8d#
4B}
4r
=33
{4.d#
8d#
4.f#
8f#
=32
4b
8a#
8g#
4g#
4f#
=35
4e#
4cc#
8b
8f#
8en
8d#
=36
4d#
4c#
4B}
4r
=39
{4f#
4g#
4f#
8d#
8e
=20
4f#
4g#
4f#
4d#
=21
4d#
4e#
4.f#
8f#
=22
8a#
8g#
8f#
8e#
2f#}
=23
{4f#
8a#
8g#
4f#
8d#
8e
=22
4f#
8a#
8g#
4f#
4d#
=25
4b
4B
8b
8e
8f#
8g#
=26
4f#
4f#
4d#}
4r
=29
{4B
4B
4.B
8B
=50
4b
4an
4gn
4f#
=51
4e
4dn
4c#
8a
8gn
=52
4f#
4e
4dn}
4r
=53
{4.B
8B
4b
4ccn
=52
4b
4an
4gn
4f#
=55
4e
4dn
4cc#
8a
8gn
=56
4f#
4e
4dn}
4r
=57
{4.f#
8e
4d#
4d#
=58
4e#
8f#
8g#
4f#
4d#
=59
4.f#
8e#
4en
4en
=60
4f#
8gn
8an
4gn}
4r
=61
{4gn
4b-
4a-
4fn
=62
4e
4d-
4cn
4A-
=63
4g#
4b
4an
4f#
=62
4e#
4dn
4c#}
4r
=66
*k[f#c#]
{4f#
4f#
4a
4a
=67
4dd
8cc#
8b
4b
4a
=68
4g#
4b
4.a
8gn
=69
8f#
8g
8e
8f#
4d}
4r
=70
{4f#
4f#
4a
4a
=71
4dd
8cc#
8b
4b
4a
=72
4.g#
8dd
8dd
8a
8gn
8f#
=73
4f#
4e
4d}
4r
=76
{4d
4d
4d
4d
=77
4dd
4ccn
4b-
4a
=78
4g
4fn
4e
8cc
8b-
=79
4a
4g
4fn}
4r
=80
{4.ccn
8g
4.f#
8f#
=81
4.ccn
8g
8gq
4f#
4f#
=82
4.b-
8fn
4.e
8e
=83
4.b-
8fn
8fnq
4e
4e}
=85
{4.g#
8g#
4g#
4g#
=86
2g#
(4.b
8g#)
=87
4a#}
{4.a#
8a#
[4a#
=88
8a#]
8a#
2a#
8b
8g#
=89
[1a#
=90
2a#]}
2r
=92
*k[f#c#g#d#a#]
*M3/4
*MM[sehr langsam]
4r
4r
{8.g#
16g#
=93
4.b
8a#
8.a#
16g#
=92
4g#
4f##
8.g#
16g#
=95
4.b#
8a#
8.cc#
16a#
=96
(4g#
4f##)}
{8f#
8e#
=97
8.d#
16e#
8f##
8g#
4a#
=98
4g#}
4r
{8g#
8g#
=99
4..cc#
16b#
8.cc#
16bn
=100
4..an
16an
8.cc#
16b
=101
2an}
{8an
8g#
=102
4.f##
8cc#
8b
8a#
=103
4.g#
8cc#
8b#
8a#
=102
2.g#}
*-
